X:767
M:C|
L:1/8
K:G
edeg edBg|bgaf gedB|egdB BAA||B|G/G/G dB gBdg|G/G/G dB eAAB|
gaba gedB|egdB BAAB||

